Sedona/img/ha_logo/ha_hover.svg

<svg width="115" height="33" viewBox="0 0 115 33" fill="none" xmlns="http://www.w3.org/2000/svg">
<path d="M0 12.8691V15.4429H2.45789V12.8691H0Z" fill="#81B3D2"/>
<path d="M11.6466 4.52562C10.0863 4.52562 8.82534 5.23341 8.03454 6.26294H7.94905V0H5.91864V15.4429H7.94905V10.1451C7.94905 8.02172 9.27418 6.49888 11.2191 6.49888C13.0572 6.49888 14.1258 7.87158 14.1258 9.71614V15.4429H16.1563V9.35153C16.1563 6.41308 14.3396 4.52562 11.6466 4.52562Z" fill="#81B3D2"/>
<path d="M26.6171 4.82696H21.8082V1.07349H19.7778V4.82696H17.8542V6.80022H19.7778V12.7843C19.7778 14.5002 20.7396 15.4439 22.4708 15.4439H26.6171V13.4492H22.8769C22.193 13.4492 21.8082 13.0632 21.8082 12.3983V6.80022H26.6171V4.82696Z" fill="#81B3D2"/>
<path d="M41.1215 4.54712C39.497 4.54712 38.2576 5.34071 37.5736 6.60618H37.5095C36.8897 5.36217 35.7356 4.54712 34.154 4.54712C32.7434 4.54712 31.6746 5.29781 31.0336 6.3488H30.948V4.82596H29.0031V15.4429H31.0336V9.99504C31.0336 8.00032 32.0806 6.54184 33.6624 6.49894C35.1584 6.45604 36.0347 7.52847 36.0347 9.13708V15.4429H38.0652V9.82343C38.0652 7.44266 39.4758 6.49894 40.6941 6.49894C42.1688 6.49894 43.0452 7.52847 43.0452 9.13708V15.4429H45.0754V8.92261C45.0754 6.3488 43.6221 4.54712 41.1215 4.54712Z" fill="#81B3D2"/>
<path d="M47.8272 12.6975C47.8272 14.4348 48.8104 15.4429 50.627 15.4429H52.636V13.4696H50.9262C50.2422 13.4696 49.8574 13.0835 49.8574 12.4186V0H47.8272V12.6975Z" fill="#81B3D2"/>
<path d="M28.9048 19.6888H28.8192C28.027 18.6227 26.7425 17.8764 25.0295 17.8551C21.882 17.8124 19.6338 20.1365 19.6338 23.4202C19.6338 26.7252 21.9248 29.0494 25.008 29.0068C26.7637 28.9853 28.027 28.1965 28.8192 27.0663H28.9048V28.7081H30.9177V18.1536H28.9048V19.6888ZM25.3077 27.0451C23.081 27.0451 21.6679 25.4245 21.6679 23.4202C21.6679 21.4159 23.081 19.7954 25.3077 19.7954C27.4703 19.7954 28.8836 21.4159 28.8836 23.4202C28.8836 25.4033 27.4703 27.0451 25.3077 27.0451Z" fill="#81B3D2"/>
<path d="M44.2094 21.9915C43.7169 19.6034 41.5972 17.855 38.8138 17.855C35.4523 17.855 33.2042 20.307 33.2042 23.4201C33.2042 26.5331 35.4523 29.0067 38.8138 29.0067C41.5972 29.0067 43.7169 27.2155 44.2094 24.8061H42.0898C41.6616 26.1494 40.3983 27.0662 38.8353 27.0662C36.6513 27.0662 35.238 25.4244 35.238 23.4201C35.238 21.4158 36.6513 19.7953 38.8353 19.7953C40.4624 19.7953 41.6616 20.7548 42.0898 21.9915H44.2094Z" fill="#81B3D2"/>
<path d="M55.0836 19.6888H54.998C54.2057 18.6227 52.921 17.8764 51.208 17.8551C48.0606 17.8124 45.8124 20.1365 45.8124 23.4202C45.8124 26.7252 48.1035 29.0494 51.1866 29.0068C52.9424 28.9853 54.2057 28.1965 54.998 27.0663H55.0836V28.7081H57.0962V18.1536H55.0836V19.6888ZM51.4865 27.0451C49.2595 27.0451 47.8465 25.4245 47.8465 23.4202C47.8465 21.4159 49.2595 19.7954 51.4865 19.7954C53.6491 19.7954 55.0621 21.4159 55.0621 23.4202C55.0621 25.4033 53.6491 27.0451 51.4865 27.0451Z" fill="#81B3D2"/>
<path d="M68.6538 19.7953H68.5682C67.776 18.6652 66.4483 17.8763 64.7568 17.855C61.6738 17.8123 59.3827 20.1365 59.3827 23.4415C59.3827 26.7251 61.6309 29.0493 64.7783 29.0067C66.4483 28.9853 67.776 28.239 68.5468 27.1729H68.6538V28.708H70.6665V13.356H68.6538V19.7953ZM65.0568 27.0662C62.8298 27.0662 61.4168 25.4458 61.4168 23.4415C61.4168 21.4372 62.8298 19.8166 65.0568 19.8166C67.2193 19.8166 68.6324 21.4585 68.6324 23.4415C68.6324 25.4458 67.2193 27.0662 65.0568 27.0662Z" fill="#81B3D2"/>
<path d="M78.3297 17.855C75.0752 17.855 72.8483 20.3497 72.8483 23.4414C72.8483 26.4479 74.9467 29.0067 78.3724 29.0067C80.8561 29.0067 82.8475 27.6633 83.5541 25.4244H81.4342C80.9634 26.4267 79.8286 27.0662 78.4582 27.0662C76.5312 27.0662 75.1608 25.7869 75.0108 24.1451H83.7682C84.0464 20.6269 81.8412 17.855 78.3297 17.855ZM78.2868 19.7953C79.9783 19.7953 81.2416 20.8401 81.5627 22.354H75.0538C75.3534 20.8614 76.6168 19.7953 78.2868 19.7953Z" fill="#81B3D2"/>
<path d="M98.1985 17.8762C96.5713 17.8762 95.3295 18.6651 94.6443 19.9232H94.5799C93.9591 18.6865 92.8029 17.8762 91.2184 17.8762C89.8054 17.8762 88.7347 18.6225 88.0924 19.6673H88.0068V18.1534H86.0583V28.7079H88.0924V23.2921C88.0924 21.3091 89.1417 19.8592 90.7261 19.8165C92.2247 19.7739 93.1028 20.84 93.1028 22.4392V28.7079H95.1368V23.1215C95.1368 20.7547 96.5499 19.8165 97.7703 19.8165C99.2477 19.8165 100.125 20.84 100.125 22.4392V28.7079H102.16V22.226C102.16 19.6673 100.704 17.8762 98.1985 17.8762Z" fill="#81B3D2"/>
<path d="M109.441 27.0237L105.801 18.1536H103.553L108.392 29.7104L108.371 29.753C108.028 30.6272 107.643 30.947 106.701 30.947H104.196V32.9726H106.701C108.542 32.9726 109.527 32.1411 110.212 30.3499L114.88 18.1536H112.803L109.441 27.0237Z" fill="#81B3D2"/>
</svg>

<svg width="115" height="33" fill="none" xmlns="http://www.w3.org/2000/svg">
  <path d="M0 12.87v2.573h2.458v-2.574H0ZM11.647 4.526c-1.56 0-2.822.707-3.612 1.737h-.086V0H5.92v15.443h2.03v-5.298c0-2.123 1.325-3.646 3.27-3.646 1.838 0 2.907 1.373 2.907 3.217v5.727h2.03V9.352c0-2.939-1.816-4.826-4.51-4.826ZM26.617 4.827h-4.809V1.073h-2.03v3.754h-1.924V6.8h1.924v5.984c0 1.716.962 2.66 2.693 2.66h4.146v-1.995h-3.74c-.684 0-1.069-.386-1.069-1.05V6.8h4.81V4.827ZM41.121 4.547c-1.624 0-2.863.794-3.547 2.06h-.064c-.62-1.245-1.774-2.06-3.356-2.06-1.41 0-2.48.75-3.12 1.802h-.086V4.826h-1.945v10.617h2.03V9.995c0-1.995 1.048-3.453 2.63-3.496 1.495-.043 2.372 1.03 2.372 2.638v6.306h2.03v-5.62c0-2.38 1.41-3.324 2.63-3.324 1.474 0 2.35 1.03 2.35 2.638v6.306h2.03v-6.52c0-2.574-1.453-4.376-3.954-4.376ZM47.827 12.697c0 1.738.983 2.746 2.8 2.746h2.009V13.47h-1.71c-.684 0-1.069-.386-1.069-1.051V0h-2.03v12.697ZM28.905 19.689h-.086c-.792-1.066-2.076-1.813-3.79-1.834-3.147-.043-5.395 2.282-5.395 5.565 0 3.305 2.29 5.63 5.374 5.587 1.756-.022 3.019-.81 3.811-1.94h.086v1.641h2.013V18.154h-2.013v1.535Zm-3.597 7.356c-2.227 0-3.64-1.62-3.64-3.625 0-2.004 1.413-3.625 3.64-3.625 2.162 0 3.576 1.62 3.576 3.625 0 1.983-1.414 3.625-3.576 3.625ZM44.21 21.991c-.493-2.388-2.613-4.136-5.396-4.136-3.362 0-5.61 2.452-5.61 5.565 0 3.113 2.248 5.587 5.61 5.587 2.783 0 4.903-1.792 5.395-4.2h-2.12c-.427 1.342-1.69 2.26-3.254 2.26-2.184 0-3.597-1.643-3.597-3.647 0-2.004 1.413-3.625 3.597-3.625 1.627 0 2.827.96 3.255 2.196h2.12ZM55.084 19.689h-.086c-.792-1.066-2.077-1.813-3.79-1.834-3.147-.043-5.396 2.282-5.396 5.565 0 3.305 2.291 5.63 5.375 5.587 1.755-.022 3.019-.81 3.811-1.94h.086v1.641h2.012V18.154h-2.012v1.535Zm-3.598 7.356c-2.226 0-3.64-1.62-3.64-3.625 0-2.004 1.414-3.625 3.64-3.625 2.163 0 3.576 1.62 3.576 3.625 0 1.983-1.413 3.625-3.575 3.625ZM68.654 19.795h-.086c-.792-1.13-2.12-1.919-3.811-1.94-3.083-.043-5.374 2.282-5.374 5.587 0 3.283 2.248 5.607 5.395 5.565 1.67-.022 2.998-.768 3.769-1.834h.107v1.535h2.013V13.356h-2.013v6.44Zm-3.597 7.271c-2.227 0-3.64-1.62-3.64-3.624 0-2.005 1.413-3.625 3.64-3.625 2.162 0 3.575 1.642 3.575 3.625 0 2.004-1.413 3.624-3.575 3.624ZM78.33 17.855c-3.255 0-5.482 2.495-5.482 5.586 0 3.007 2.099 5.566 5.524 5.566 2.484 0 4.475-1.344 5.182-3.583h-2.12c-.47 1.003-1.605 1.642-2.976 1.642-1.927 0-3.297-1.28-3.447-2.92h8.757c.278-3.52-1.927-6.291-5.438-6.291Zm-.043 1.94c1.691 0 2.955 1.045 3.276 2.559h-6.51c.3-1.493 1.564-2.559 3.234-2.559ZM98.198 17.876c-1.627 0-2.868.79-3.554 2.047h-.064c-.62-1.236-1.777-2.047-3.362-2.047-1.413 0-2.483.746-3.126 1.791h-.085v-1.514h-1.949v10.555h2.034v-5.416c0-1.983 1.05-3.433 2.634-3.476 1.499-.042 2.377 1.024 2.377 2.623v6.269h2.034v-5.586c0-2.367 1.413-3.305 2.633-3.305 1.478 0 2.355 1.023 2.355 2.622v6.269h2.035v-6.482c0-2.559-1.456-4.35-3.962-4.35ZM109.441 27.024l-3.64-8.87h-2.248l4.839 11.556-.021.043c-.343.874-.728 1.194-1.67 1.194h-2.505v2.026h2.505c1.841 0 2.826-.832 3.511-2.623l4.668-12.196h-2.077l-3.362 8.87Z" fill="#81B3D2"/>
</svg>
